!!!COM: Anon.
!!!OTL: Kuro-Kami
!!!OTC: Japanese Popular Music: A Collection of The Popular Music of Japan Rendered in to the Staff notation.
!!!CNT: Nippon, Japanese
!!!TXO: Nippon, Japan
!!!OCY: Nippon, Japan
!!!ODT: <1892///
!!!PSR: S. Miki & Co.
!!!PSP: Osaka, Nippon
!!!PDT: 1892///
!!!PPE: Y Nagai & K. Kobatake
!!!PED: Revised Second Edition
!!!PPG: page 40-41
!! Moderato
**kern	**silbe
*ICstr	*Lnippon
*ICvox	*
*Ikoto	*
*Ivox	*
*clefG2	*
*k[]	*
*M4/4	*
=1-	=1-
4B 4b	.
4r	.
2b	.
=2	=2
(4cc	.
4b)	.
(4a	.
4f	.
=3	=3
2e)	.
4d	.
4e	.
=4	=4
2.f	.
(4f	.
=5	=5
4f	.
4a)	.
(4b	.
4a	.
=6	=6
2f)	.
4e	.
4d	.
=7	=7
4e	.
(4f	.
4a	.
4f)	.
=8	=8
4.e	.
8c	.
(4B	.
4a)	.
=9	=9
4b	.
4b	.
2b	.
=10	=10
4.f	.
8a	.
4b	.
8cc	.
8b	.
=11	=11
4a	.
4b	.
2cc	.
=12	=12
4e	.
4cc	.
4cc	.
4r	.
=13	=13
4ee	.
4cc	.
2b	.
=14	=14
4b	.
8a	.
8b	.
4B	.
4cc	.
=15	=15
(4ee	.
4cc	.
4b)	.
(8ee	.
8cc)	.
=16	=16
(8.b	.
16a)	.
4f	.
2e	.
=17	=17
4d	.
4e	.
4.f	.
8a	.
=18	=18
4b	.
4a	.
4f	.
(4e	.
=19	=19
4d)	.
4r	.
4e	.
(8e	.
8f)	.
=20	=20
4a	.
4f	.
(4e	.
8B	.
8d)	.
=21	=21
2e	.
4e	.
4r	.
=22	=22
8dd	.
8dd	.
8dd	.
8dd	.
4ee	.
4cc	.
=23	=23
4b	.
4r	.
Q16bb	.
Q16aa	.
2ff	.
=24	=24
2e 2ee	.
4ee	.
4r	.
=25	=25
4.ff	.
8a	.
(4ff	.
4ee	.
=26	=26
8dd	.
8ee)	.
4ff	.
(8ee	.
4ee	.
8cc)	.
=27	=27
4b	.
8cc	.
8b	.
4a	.
4f	.
=28	=28
2f	.
4a	.
4f	.
=29	=29
4a	.
4b	.
(8b	.
8cc	.
4ee)	.
=30	=30
4b	.
8cc	.
8a	.
(4b	.
4b	.
=31	=31
2b)	.
4a	.
4b	.
=32	=32
4.cc	.
8b	.
4e	.
[4cc	.
=33	=33
4cc]	.
(4ff	.
4ee	.
4cc)	.
=34	=34
4.cc	.
8ee	.
4cc	.
4b	.
=35	=35
4a	.
4f	.
4a	.
4b	.
=36	=36
(4cc	.
4b)	.
(4a	.
4f)	.
=37	=37
2e	.
4e	.
4f	.
=38	=38
4.e	.
8c	.
4B	.
8f	.
8e	.
=39	=39
4d	.
4r	.
(4d	.
4e)	.
=40	=40
2f	.
(8.b	.
16a)	.
4f	.
=41	=41
2e	.
4dd	.
4ee	.
=42	=42
2ff	.
(4.ee	.
8cc)	.
=43	=43
(4b	.
4a)	.
4b	.
4b	.
=44	=44
4b;	.
4c	.
4B	.
8a	.
8b	.
=45	=45
4B	.
8r	.
8aa	.
4bb	.
4aa	.
=46	=46
2ff	.
4ee	.
8dd	.
8ee	.
=47	=47
4ff	.
4ee	.
4ff	.
4r	.
=48	=48
(4dd	.
4ee)	.
2ff	.
=49	=49
4r	.
4ff	.
2ff	.
=50	=50
8.bb	.
16a	.
4ff	.
2ff	.
=51	=51
(4ee	.
4b)	.
4dd	.
4ee	.
=52	=52
2ff	.
8ee	.
8cc	.
8b	.
8a	.
=53	=53
4f	.
4e	.
4F	.
4r	.
=54	=54
4e	.
8cc	.
8b	.
4a	.
8aa	.
8aa	.
=55	=55
4b 4bb	.
4r	.
8a	.
4b	.
(8b	.
8e)	.
=56	=56
(4dd	.
4ee)	.
(4ff	.
4ee)	.
=57	=57
(4f	.
4a	.
4b)	.
4ee	.
=58	=58
(4cc	.
4b)	.
4a	.
(4f	.
=59	=59
2e)	.
4f	.
4a	.
=60	=60
4.b	.
8a	.
2f	.
=61	=61
4b	.
4f	.
4e	.
4d	.
=62	=62
2e	.
2B	.
=63	=63
4b	.
4e	.
4B 4b	.
4r	.
=64	=64
2b	.
(4ee	.
4cc)	.
=65	=65
(8.b	.
16a)	.
2f	.
qb	.
4e	.
=66	=66
2d	.
2e	.
=67	=67
2.e	.
4r	.
==	==
*-	*-
!!!ENC: David Huron
!!!RDT: 2000/1/30
!!!EEV: Release 1.0
!!!ELF: 12/28
!!!YER: 2000/2/1
!!!YEM: Copyright David Huron, 2000
!!!YEN: United States of America
